; generated by PrusaSlicer 2.6.1+win64 on 2023-10-12 at 22:18:18 UTC


;
;
; 

; external perimeters extrusion width = 0.45mm
; perimeters extrusion width = 0.45mm
; infill extrusion width = 0.45mm
; solid infill extrusion width = 0.45mm
; top infill extrusion width = 0.40mm
; first layer extrusion width = 0.42mm

M73 P0 R3
M73 C1
M73 Q0 S3
M73 D1
M201 X1000 Y1000 Z200 E5000 ; sets maximum accelerations, mm/sec^2
M203 X200 Y200 Z12 E120 ; sets maximum feedrates, mm / sec
M204 S1250 T1250 ; sets acceleration (S) and retract acceleration (R), mm/sec^2
M205 X8.00 Y8.00 Z0.40 E4.50 ; sets the jerk limits, mm/sec
M205 S0 T0 ; sets the minimum extruding and travel feed rate, mm/sec
;TYPE:Custom
M862.3 P "MK3S" ; printer model check
M862.1 P0.4 ; nozzle diameter check
M115 U3.13.1 ; tell printer latest fw version
G90 ; use absolute coordinates
M83 ; extruder relative mode
M104 S260 ; set extruder temp
M140 S85 ; set bed temp
M190 S85 ; wait for bed temp
M109 S260 ; wait for extruder temp
G28 W ; home all without mesh bed level
G80 ; mesh bed leveling

G1 Z0.2 F720
G1 Y-3 F1000 ; go outside print area
G92 E0
G1 X60 E9 F1000 ; intro line
G1 X100 E12.5 F1000 ; intro line

G92 E0
M221 S95

; Don't change E values below. Excessive value can damage the printer.

M907 E538 ; set extruder motor current
G21 ; set units to millimeters
G90 ; use absolute coordinates
M83 ; use relative distances for extrusion
M900 K0.08 ; Filament gcode LA 1.5
M900 K45 ; Filament gcode LA 1.0

M107 ; disable fan
;LAYER_CHANGE
;Z:0.2
;HEIGHT:0.2
;BEFORE_LAYER_CHANGE
G92 E0.0
;0.2


M73 P1 R3
M73 Q1 S3
G1 E-1 F2100 ; retract
M73 P3 R3
M73 Q2 S3
G1 Z.2 F720 ; lift Z
;AFTER_LAYER_CHANGE
;0.2
M73 Q3 S3
G1 Z.4 ; lift Z
G1 X106.699 Y88.908 F10800 ; move to first skirt point
G1 Z.2 F720 ; restore layer Z
G1 E1 F2100 ;  ; unretract
M204 S800 ; adjust acceleration
;TYPE:Skirt/Brim
;WIDTH:0.42
G1 F1200
G1 X108.025 Y87.317 E.06494 ; skirt
G1 X110.4 Y85.698 E.09012 ; skirt
G1 X113.128 Y84.793 E.09012 ; skirt
G1 X115 Y84.623 E.05894 ; skirt
G1 X135 Y84.623 E.62709 ; skirt
G1 X137.847 Y85.021 E.09013 ; skirt
M73 P4 R3
M73 Q4 S3
G1 X140.475 Y86.185 E.09012 ; skirt
G1 X142.683 Y88.025 E.09012 ; skirt
G1 X144.302 Y90.4 E.09012 ; skirt
G1 X145.207 Y93.128 E.09012 ; skirt
G1 X145.377 Y95 E.05894 ; skirt
G1 X145.377 Y115 E.62709 ; skirt
G1 X144.979 Y117.847 E.09013 ; skirt
M73 P5 R3
M73 Q5 S3
G1 X143.815 Y120.475 E.09012 ; skirt
G1 X141.975 Y122.683 E.09012 ; skirt
G1 X139.6 Y124.302 E.09012 ; skirt
G1 X136.872 Y125.207 E.09012 ; skirt
G1 X135 Y125.377 E.05894 ; skirt
G1 X115 Y125.377 E.62709 ; skirt
G1 X112.153 Y124.979 E.09013 ; skirt
M73 Q6 S3
G1 X109.525 Y123.815 E.09012 ; skirt
G1 X107.317 Y121.975 E.09012 ; skirt
M73 P6 R3
G1 X105.698 Y119.6 E.09012 ; skirt
G1 X104.793 Y116.872 E.09012 ; skirt
G1 X104.623 Y115 E.05894 ; skirt
G1 X104.623 Y95 E.62709 ; skirt
G1 X105.021 Y92.153 E.09013 ; skirt
G1 X106.185 Y89.525 E.09012 ; skirt
G1 X106.66 Y88.955 E.02326 ; skirt
M204 S1000 ; adjust acceleration
; printing object Layer Shift Test Thing.stl id:0 copy 0
;WIPE_START
M73 Q7 S3
G1 F8640
G1 X108.025 Y87.317 E-.49233 ; wipe and retract
G1 X109.842 Y86.079 E-.50767 ; wipe and retract
;WIPE_END
G1 Z.4 F720 ; lift Z
M73 P7 R3
G1 X134.213 Y114.213 F10800 ; move to first perimeter point
G1 Z.2 F720 ; restore layer Z
G1 E1 F2100 ;  ; unretract
M204 S800 ; adjust acceleration
;TYPE:Perimeter
;WIDTH:0.419999
G1 F1200
G1 X133.868 Y114.213 E.01082 ; perimeter
;WIDTH:0.442881
G1 X115.787 Y114.213 E.60132 ; perimeter
;WIDTH:0.419999
G1 X115.787 Y113.868 E.01082 ; perimeter
;WIDTH:0.442881
G1 X115.787 Y95.787 E.60132 ; perimeter
;WIDTH:0.419999
G1 X116.132 Y95.787 E.01082 ; perimeter
;WIDTH:0.442881
M73 P8 R3
M73 Q8 S3
G1 X134.213 Y95.787 E.60132 ; perimeter
;WIDTH:0.419999
G1 X134.213 Y96.132 E.01082 ; perimeter
;WIDTH:0.442881
G1 X134.201 Y113.224 E.56843 ; perimeter
;WIDTH:0.448768
G1 X134.212 Y114.153 E.03135 ; perimeter
M204 S1000 ; adjust acceleration
M73 P9 R3
M73 Q9 S3
G1 X134.59 Y114.59 F10800 ; move to first perimeter point
M204 S800 ; adjust acceleration
;TYPE:External perimeter
;WIDTH:0.419999
G1 F1200
G1 X115.41 Y114.59 E.60137 ; perimeter
G1 X115.41 Y95.41 E.60137 ; perimeter
G1 X134.59 Y95.41 E.60137 ; perimeter
M73 P10 R3
M73 Q10 S3
G1 X134.59 Y114.53 E.59949 ; perimeter
M204 S1000 ; adjust acceleration
G1 X134.204 Y114.486 F10800 ; move inwards before travel
;WIPE_START
M73 Q11 S3
G1 F8640
G1 X130.259 Y114.544 E-1 ; wipe and retract
;WIPE_END
G1 Z.4 F720 ; lift Z
M73 P11 R3
G1 X133.341 Y96.25 F10800 ; move to first perimeter point
G1 Z.2 F720 ; restore layer Z
G1 E1 F2100 ;  ; unretract
M204 S800 ; adjust acceleration
;TYPE:Perimeter
;WIDTH:0.442881
G1 F1200
G1 X133.624 Y96.376 E.0103 ; perimeter
G1 X133.802 Y96.776 E.01456 ; perimeter
G1 X133.802 Y113.224 E.54701 ; perimeter
;WIDTH:0.448768
G1 X133.796 Y113.325 E.00341 ; perimeter
G1 X133.624 Y113.624 E.01164 ; perimeter
G1 X133.325 Y113.796 E.01164 ; perimeter
G1 X133.224 Y113.802 E.00341 ; perimeter
;WIDTH:0.442881
G1 X116.776 Y113.802 E.54701 ; perimeter
G1 X116.376 Y113.624 E.01456 ; perimeter
;WIDTH:0.448769
M73 P12 R3
M73 Q12 S3
G1 X116.204 Y113.325 E.01164 ; perimeter
G1 X116.198 Y113.224 E.00341 ; perimeter
;WIDTH:0.442881
G1 X116.198 Y96.776 E.54701 ; perimeter
G1 X116.376 Y96.376 E.01456 ; perimeter
;WIDTH:0.448769
G1 X116.675 Y96.204 E.01164 ; perimeter
G1 X116.776 Y96.198 E.00341 ; perimeter
;WIDTH:0.442881
G1 X133.224 Y96.198 E.54701 ; perimeter
G1 X133.286 Y96.226 E.00226 ; perimeter
M204 S1000 ; adjust acceleration
G1 X133.224 Y96.587 F10800 ; move to first perimeter point
M204 S800 ; adjust acceleration
;TYPE:External perimeter
;WIDTH:0.419999
G1 F1200
M73 Q13 S3
G1 X133.358 Y96.642 E.00454 ; perimeter
G1 X133.413 Y96.776 E.00454 ; perimeter
G1 X133.413 Y113.224 E.51571 ; perimeter
G1 X133.358 Y113.358 E.00454 ; perimeter
M73 P13 R2
G1 X133.224 Y113.413 E.00454 ; perimeter
G1 X116.776 Y113.413 E.51571 ; perimeter
G1 X116.642 Y113.358 E.00454 ; perimeter
M73 Q13 S2
G1 X116.587 Y113.224 E.00454 ; perimeter
G1 X116.587 Y96.776 E.51571 ; perimeter
G1 X116.642 Y96.642 E.00454 ; perimeter
M73 P14 R2
M73 Q14 S2
G1 X116.776 Y96.587 E.00454 ; perimeter
G1 X133.164 Y96.587 E.51383 ; perimeter
M204 S1000 ; adjust acceleration
G1 X133.326 Y96.485 F10800 ; move inwards before travel
;WIPE_START
G1 F8640
G1 X133.358 Y96.642 E-.04656 ; wipe and retract
G1 X133.413 Y96.776 E-.03345 ; wipe and retract
G1 X133.413 Y100.76 E-.91999 ; wipe and retract
;WIPE_END
G1 Z.4 F720 ; lift Z
G1 X116.151 Y96.098 F10800 ; move to first perimeter point
G1 Z.2 F720 ; restore layer Z
G1 E1 F2100 ;  ; unretract
M204 S800 ; adjust acceleration
;TYPE:Perimeter
;WIDTH:0.35532
G1 F1200
G1 X116.093 Y96.132 E.00175 ; perimeter
G1 X116.151 Y96.166 E.00175 ; perimeter
G1 X116.171 Y96.132 E.00102 ; perimeter
M204 S1000 ; adjust acceleration
;WIPE_START
G1 F8640
G1 X116.151 Y96.166 E-.00911 ; wipe and retract
G1 X116.093 Y96.132 E-.01552 ; wipe and retract
G1 X116.151 Y96.098 E-.01552 ; wipe and retract
;WIPE_END
G1 E-.95985 F2100 ; retract
G1 Z.4 F720 ; lift Z
G1 X116.151 Y113.834 F10800 ; move to first perimeter point
G1 Z.2 F720 ; restore layer Z
M73 Q15 S2
G1 E1 F2100 ;  ; unretract
M204 S800 ; adjust acceleration
M73 P15 R2
G1 F1200
G1 X116.093 Y113.868 E.00175 ; perimeter
G1 X116.151 Y113.902 E.00175 ; perimeter
G1 X116.171 Y113.868 E.00102 ; perimeter
M204 S1000 ; adjust acceleration
;WIPE_START
G1 F8640
G1 X116.151 Y113.902 E-.00911 ; wipe and retract
G1 X116.093 Y113.868 E-.01552 ; wipe and retract
G1 X116.151 Y113.834 E-.01552 ; wipe and retract
;WIPE_END
G1 E-.95985 F2100 ; retract
G1 Z.4 F720 ; lift Z
G1 X133.888 Y113.834 F10800 ; move to first perimeter point
G1 Z.2 F720 ; restore layer Z
G1 E1 F2100 ;  ; unretract
M204 S800 ; adjust acceleration
;WIDTH:0.355322
G1 F1200
G1 X133.829 Y113.868 E.00177 ; perimeter
G1 X133.888 Y113.902 E.00177 ; perimeter
G1 X133.907 Y113.868 E.00101 ; perimeter
M204 S1000 ; adjust acceleration
;WIPE_START
G1 F8640
G1 X133.888 Y113.902 E-.00899 ; wipe and retract
G1 X133.829 Y113.868 E-.01572 ; wipe and retract
G1 X133.888 Y113.834 E-.01572 ; wipe and retract
;WIPE_END
G1 E-.95957 F2100 ; retract
G1 Z.4 F720 ; lift Z
G1 X133.888 Y96.098 F10800 ; move to first perimeter point
G1 Z.2 F720 ; restore layer Z
G1 E1 F2100 ;  ; unretract
M204 S800 ; adjust acceleration
G1 F1200
G1 X133.829 Y96.132 E.00177 ; perimeter
G1 X133.888 Y96.166 E.00177 ; perimeter
G1 X133.907 Y96.132 E.00101 ; perimeter
M204 S1000 ; adjust acceleration
; stop printing object Layer Shift Test Thing.stl id:0 copy 0
;LAYER_CHANGE
;Z:0.4
;HEIGHT:0.2
;BEFORE_LAYER_CHANGE
G92 E0.0
;0.4


;WIPE_START
G1 F8640
G1 X133.888 Y96.166 E-.00899 ; wipe and retract
G1 X133.829 Y96.132 E-.01572 ; wipe and retract
G1 X133.888 Y96.098 E-.01572 ; wipe and retract
;WIPE_END
G1 E-.95957 F2100 ; retract
G1 Z.4 F720 ; lift Z
;AFTER_LAYER_CHANGE
;0.4
M104 S225 ; set temperature
M140 S90 ; set bed temperature
G1 Z.6 ; lift Z
G1 X133.888 Y84.623 F10800 ; move to first skirt point
G1 Z.4 F720 ; restore layer Z
G1 E1 F2100 ;  ; unretract
;TYPE:Skirt/Brim
;WIDTH:0.42
G1 F2645
G1 X135 Y84.623 E.03487 ; skirt
G1 X137.847 Y85.021 E.09013 ; skirt
G1 X140.475 Y86.185 E.09012 ; skirt
G1 X142.683 Y88.025 E.09012 ; skirt
G1 X144.302 Y90.4 E.09012 ; skirt
G1 X145.207 Y93.128 E.09012 ; skirt
G1 X145.377 Y95 E.05894 ; skirt
M73 Q16 S2
G1 X145.377 Y115 E.62709 ; skirt
G1 X144.979 Y117.847 E.09013 ; skirt
M73 P16 R2
G1 X143.815 Y120.475 E.09012 ; skirt
G1 X141.975 Y122.683 E.09012 ; skirt
G1 X139.6 Y124.302 E.09012 ; skirt
G1 X136.872 Y125.207 E.09012 ; skirt
G1 X135 Y125.377 E.05894 ; skirt
G1 X115 Y125.377 E.62709 ; skirt
G1 X112.153 Y124.979 E.09013 ; skirt
G1 X109.525 Y123.815 E.09012 ; skirt
G1 X107.317 Y121.975 E.09012 ; skirt
G1 X105.698 Y119.6 E.09012 ; skirt
G1 X104.793 Y116.872 E.09012 ; skirt
G1 X104.623 Y115 E.05894 ; skirt
G1 X104.623 Y95 E.62709 ; skirt
G1 X105.021 Y92.153 E.09013 ; skirt
M73 Q17 S2
G1 X106.185 Y89.525 E.09012 ; skirt
M73 P17 R2
G1 X108.025 Y87.317 E.09012 ; skirt
G1 X110.4 Y85.698 E.09012 ; skirt
G1 X113.128 Y84.793 E.09012 ; skirt
G1 X115 Y84.623 E.05894 ; skirt
G1 X133.828 Y84.623 E.59034 ; skirt
; printing object Layer Shift Test Thing.stl id:0 copy 0
;WIPE_START
G1 F8640
G1 X135 Y84.623 E-.27062 ; wipe and retract
G1 X137.847 Y85.021 E-.66377 ; wipe and retract
G1 X138.107 Y85.136 E-.06561 ; wipe and retract
;WIPE_END
G1 Z.6 F720 ; lift Z
G1 X116.805 Y96.006 F10800 ; move to first perimeter point
G1 Z.4 F720 ; restore layer Z
G1 E1 F2100 ;  ; unretract
M204 S800 ; adjust acceleration
;TYPE:Perimeter
;WIDTH:0.38349
G1 F1500
G1 X116.283 Y96.283 E.01673 ; perimeter
;WIDTH:0.373434
G1 X115.999 Y96.976 E.02058 ; perimeter
G1 X116.001 Y96.001 E.0268 ; perimeter
G1 X116.166 Y96.001 E.00453 ; perimeter
;WIDTH:0.38349
G1 X116.745 Y96.005 E.0164 ; perimeter
M204 S1000 ; adjust acceleration
;WIPE_START
G1 F8640
G1 X116.283 Y96.283 E-.1245 ; wipe and retract
G1 X115.999 Y96.976 E-.17293 ; wipe and retract
G1 X116.001 Y96.001 E-.22513 ; wipe and retract
G1 X116.166 Y96.001 E-.0381 ; wipe and retract
G1 X116.745 Y96.005 E-.1337 ; wipe and retract
;WIPE_END
G1 E-.30564 F2100 ; retract
G1 Z.6 F720 ; lift Z
G1 X133.635 Y96.249 F10800 ; move to first perimeter point
G1 Z.4 F720 ; restore layer Z
M73 Q18 S2
G1 E1 F2100 ;  ; unretract
M204 S800 ; adjust acceleration
;WIDTH:0.373435
G1 F1500
M73 P18 R2
G1 X133.024 Y95.999 E.01814 ; perimeter
G1 X133.999 Y96.001 E.0268 ; perimeter
G1 X134.002 Y96.976 E.0268 ; perimeter
G1 X133.717 Y96.283 E.02059 ; perimeter
G1 X133.691 Y96.272 E.00078 ; perimeter
M204 S1000 ; adjust acceleration
;WIPE_START
G1 F8640
G1 X133.024 Y95.999 E-.16641 ; wipe and retract
G1 X133.999 Y96.001 E-.22513 ; wipe and retract
G1 X134.002 Y96.976 E-.22513 ; wipe and retract
G1 X133.717 Y96.283 E-.17302 ; wipe and retract
G1 X133.691 Y96.272 E-.00652 ; wipe and retract
;WIPE_END
G1 E-.20379 F2100 ; retract
G1 Z.6 F720 ; lift Z
G1 X133.994 Y113.195 F10800 ; move to first perimeter point
G1 Z.4 F720 ; restore layer Z
G1 E1 F2100 ;  ; unretract
M204 S800 ; adjust acceleration
;WIDTH:0.38349
G1 F1500
G1 X133.999 Y113.999 E.02277 ; perimeter
;WIDTH:0.373436
G1 X133.834 Y113.999 E.00453 ; perimeter
;WIDTH:0.38349
G1 X133.195 Y113.994 E.0181 ; perimeter
G1 X133.717 Y113.717 E.01673 ; perimeter
G1 X133.966 Y113.248 E.01504 ; perimeter
M204 S1000 ; adjust acceleration
;WIPE_START
G1 F8640
G1 X133.999 Y113.999 E-.17358 ; wipe and retract
G1 X133.834 Y113.999 E-.0381 ; wipe and retract
G1 X133.195 Y113.994 E-.14755 ; wipe and retract
G1 X133.717 Y113.717 E-.13645 ; wipe and retract
G1 X133.966 Y113.248 E-.12261 ; wipe and retract
;WIPE_END
G1 E-.38171 F2100 ; retract
G1 Z.6 F720 ; lift Z
G1 X116.976 Y114.002 F10800 ; move to first perimeter point
G1 Z.4 F720 ; restore layer Z
G1 E1 F2100 ;  ; unretract
M204 S800 ; adjust acceleration
;WIDTH:0.373435
G1 F1500
G1 X116.001 Y113.999 E.0268 ; perimeter
G1 X116.001 Y113.834 E.00453 ; perimeter
;WIDTH:0.38349
G1 X116.006 Y113.195 E.0181 ; perimeter
G1 X116.283 Y113.717 E.01673 ; perimeter
;WIDTH:0.373435
G1 X116.92 Y113.979 E.01893 ; perimeter
M204 S1000 ; adjust acceleration
;WIPE_START
G1 F8640
G1 X116.001 Y113.999 E-.21225 ; wipe and retract
G1 X116.001 Y113.834 E-.0381 ; wipe and retract
G1 X116.006 Y113.195 E-.14755 ; wipe and retract
G1 X116.283 Y113.717 E-.13645 ; wipe and retract
G1 X116.92 Y113.979 E-.15904 ; wipe and retract
;WIPE_END
G1 E-.30661 F2100 ; retract
M73 Q19 S2
G1 Z.6 F720 ; lift Z
G1 X133.414 Y96.526 F10800 ; move to first perimeter point
G1 Z.4 F720 ; restore layer Z
M73 P19 R2
G1 E1 F2100 ;  ; unretract
M204 S800 ; adjust acceleration
;WIDTH:0.449999
G1 F2645
G1 X133.456 Y96.544 E.00155 ; perimeter
G1 X133.635 Y96.976 E.01583 ; perimeter
G1 X133.635 Y113.024 E.5432 ; perimeter
G1 X133.626 Y113.13 E.0036 ; perimeter
G1 X133.456 Y113.456 E.01244 ; perimeter
G1 X133.13 Y113.626 E.01244 ; perimeter
G1 X133.024 Y113.635 E.0036 ; perimeter
G1 X116.976 Y113.635 E.5432 ; perimeter
G1 X116.544 Y113.456 E.01583 ; perimeter
G1 X116.374 Y113.13 E.01244 ; perimeter
G1 X116.365 Y113.024 E.0036 ; perimeter
G1 X116.365 Y96.976 E.5432 ; perimeter
G1 X116.544 Y96.544 E.01583 ; perimeter
G1 X116.87 Y96.374 E.01244 ; perimeter
G1 X116.976 Y96.365 E.0036 ; perimeter
G1 X133.024 Y96.365 E.5432 ; perimeter
G1 X133.358 Y96.503 E.01223 ; perimeter
M204 S1000 ; adjust acceleration
M73 Q20 S2
G1 X133.168 Y96.832 F10800 ; move to first perimeter point
M204 S800 ; adjust acceleration
;TYPE:External perimeter
G1 F2100

G1 X133.228 Y96.976 E.00528 ; perimeter
G1 X133.228 Y113.024 E.5432 ; perimeter
G1 X133.168 Y113.168 E.00528 ; perimeter
M73 P20 R2
G1 X133.024 Y113.228 E.00528 ; perimeter
G1 X116.976 Y113.228 E.5432 ; perimeter
G1 X116.832 Y113.168 E.00528 ; perimeter
G1 X116.772 Y113.024 E.00528 ; perimeter
G1 X116.772 Y96.976 E.5432 ; perimeter
G1 X116.832 Y96.832 E.00528 ; perimeter
G1 X116.976 Y96.772 E.00528 ; perimeter
G1 X133.024 Y96.772 E.5432 ; perimeter
G1 F2063.141
G1 X133.113 Y96.809 E.00326 ; perimeter

M204 S1000 ; adjust acceleration
G1 X133.319 Y96.791 F10800 ; move inwards before travel
;WIPE_START
G1 F8640
G1 X133.228 Y96.976 E-.04682 ; wipe and retract
G1 X133.228 Y101.104 E-.95318 ; wipe and retract
;WIPE_END
G1 Z.6 F720 ; lift Z
M73 Q21 S2
G1 X116.805 Y96.006 F10800 ; move to first perimeter point
G1 Z.4 F720 ; restore layer Z
M73 P21 R2
G1 E1 F2100 ;  ; unretract
M204 S800 ; adjust acceleration
;TYPE:Perimeter
;WIDTH:0.38349
G1 F2645
G1 X116.976 Y95.999 E.00485 ; perimeter
;WIDTH:0.368684
G1 X133.024 Y95.999 E.4347 ; perimeter
M204 S1000 ; adjust acceleration
;WIPE_START
G1 F8640
G1 X128.693 Y95.999 E-1 ; wipe and retract
;WIPE_END
G1 Z.6 F720 ; lift Z
G1 X134.368 Y114.368 F10800 ; move to first perimeter point
G1 Z.4 F720 ; restore layer Z
G1 E1 F2100 ;  ; unretract
M204 S800 ; adjust acceleration
;WIDTH:0.449999
G1 F2645
G1 X115.632 Y114.368 E.63419 ; perimeter
G1 X115.632 Y95.632 E.63419 ; perimeter
G1 X134.368 Y95.632 E.63419 ; perimeter
M73 P22 R2
M73 Q22 S2
